X:1
T:Se dunqu'il dolce
T:Giovanni de Macque
T:Source : Canzonette a la Romana a tre voci---Antwerp---P.Phalesius Jr---1607. Editor : André Vierendeels (22/01/17).
T:Notes : Original clefs :  C1, C2,  F3            
T:Se dunqu'il dolce
T:©
T:©
T:©
T:©
C:Giovanni de Macque
Z:©
%%score [ 1 2 3 ]
L:1/8
Q:1/4=105
M:4/4
K:F
V:1 treble nm="Soprano" snm="S"
V:2 treble nm="Alto" snm="A"
V:3 bass nm="Bass" snm="B"
V:1
 d4 B2 d2 | c2 B2 A3 G | FEDE FGAB | c2 d4 ^c2 | d4 D4 | A6 A2 | F4 F4 | c8 | F4 B2 Bc | d4 A4 | %10
w: Se dun- qu'il|dol- ce can- *|||to, se|dun- qu'il|dol- ce|can-|to, gio- v'a gl'a-|man- ti|
 c6 BA | G8 | A8 :: A2 B2 c2 BA | B4 A4 | z8 | B8 | A8 | G8 | F8 | E8 | D8 | D8 | z2 GA B2 AG | %24
w: tan- * *||to,|o- gni'a- man- te si|di- a,||al-|la|dolc'|Ar-|mo-|ni-|a,|o- gni'a- man- te si|
 A4 G4 | z2 Bc d2 cB | c4 c4 | z2 dc B2 AG | c4 A4 | z2 BA G4 | ^F3 G A4 | =B8 :| %32
w: di- a,|o- gni'a- man- ti si|di- a,|al- la dolc' Ar- mo-|ni- a,|al- la dolc'|Ar- mo- ni-|a.|
V:2
 B4 G2 B2 | A2 G2 F3 G | AGFE DEFD | E8 | D2 D2 B,2 D2 | C2 =B,2 C4 | D2 D2 D3 E | F8 | D8 | %9
w: Se dun- qu'il|dol- ce can- *|||to, se dun- qu'il|dol- ce can-|to, il dol- ce|can-|to,|
 z4 F2 FG | A2 E2 F4- | F2 ED E4 | F8 :: z4 E2 F2 | G2 FE F4 | E4 E2 F2 | G2 FE D4 | F2 AG F2 ED | %18
w: gio- v'a gl'a-|man- ti tan-||to,|o- gni'a-|man- te si di-|a, o- gni'a-|man- te si di-|a, al- la dolc' Ar- mo-|
 _E4 C4 | z2 FE D2 CB, | C4 B,4 | z2 DC B,4 | A,2 G,2 A,4 | =B,4 z2 DE | F2 ED _E4 | D8 | %26
w: ni- a,|al- la dolc' Ar- mo-|ni- a,|al- la dolc'|Ar- mo- ni-|a, o- gni'a-|man- ti si di-|a,|
 z2 FG A2 GF | G4 D4 | z2 AG F2 ED | G2 G2 z2 GA | B2 AG ^F4 | G8 :| %32
w: al- la dolc' Ar- mo-|ni- a,|al- la dolc' Ar- mo-|ni- a, al- la|dolc' Ar- mo- ni-|a.|
V:3
 B,,8 | F,6 F,2 | D,4 D,4 | A,8 | D,2 B,2 G,2 B,2 | A,2 G,2 F,3 E, | D,C,B,,C, D,E,F,G, | %7
w: Se|dun- qu'il|dol- ce|can-|to, se dun- qu'il|dol- ce can- *||
 A,2 B,4 A,2 | B,8 | B,2 B,C D4 | A,8 | C8 | F,8 :: z8 | B,2 C2 D2 CB, | C4 A,4 | %16
w: |to,|gio- v'a gj'a- man-|ti|tan-|to,||o- gni'a- man- te si|di- a|
 G,2 A,2 B,2 A,G, | F,8 | C2 CD E2 DC | D4 B,4 | z4 G,2 A,2 | B,6 A,G, | ^F,2 G,4 F,2 | G,8 | z8 | %25
w: o- gni'a- man- te si|di-|a o- gni'a- man te si|di- a,|al- lz|dol- c'Ar- mo-|ni- * *|a,||
 B,8 | A,8 | G,8 | F,8 | _E,8 | D,8 | G,8 :| %32
w: al-|la|dolc'|Ar-|mo-|ni-|a.|

